**kern	**kern
*part1	*part1
*staff2	*staff1
*I"Piano	*
*clefF4	*clefG2
*k[b-e-a-d-]	*k[b-e-a-d-]
=1	=1
8FFL	8.fL
8BB- 8Dn 8F	.
.	32b-LL
.	32ddnJJJ
8BB-J 8D 8F	16ff
.	16r
=	=
8FFL	4ff 4fff
8BB- 8Dn 8F	.
8BB-J 8D	8r
=	=
8FFL	8.fL
8C 8E- 8F	.
.	32anLL
.	32ccJJJ
8CJ 8E- 8F	16ff
.	16r
=	=
8FFL	4ff
8C 8E- 8F	.
8CJ 8E- 8F	8ccc
=	=
8FFL	4.cc 4.ee- 4.aan
8C 8E- 8F	.
8CJ 8E- 8F	.
=	=
8BB-L	4ddn 4ff 4bb-
8Dn 8F 8B-	.
8DJ 8F 8B-	8r
=	=
8DnL	8.fL
8F 8B- 8dni	.
.	32b-LL
.	32ddnJJJ
8FJ 8B- 8d	16ff
.	16r
=	=
*-	*-
!!!system-decoration: {(s1,s2)}
!!!RDF**kern: i = editorial accidental
